app/images/dist/chart-icon.svg

<svg width="38" height="38" viewBox="0 0 38 38" fill="none" xmlns="http://www.w3.org/2000/svg">
<path d="M27.6654 22.3334C28.127 22.3334 28.3579 22.3334 28.545 22.4359C28.6994 22.5204 28.8429 22.6792 28.9117 22.8412C28.995 23.0375 28.974 23.2465 28.932 23.6645C28.7147 25.8312 27.969 27.919 26.7517 29.7409C25.2865 31.9335 23.2042 33.6425 20.7679 34.6517C18.3315 35.6609 15.6506 35.925 13.0642 35.4105C10.4777 34.896 8.10198 33.6262 6.23728 31.7614C4.37258 29.8967 3.1027 27.521 2.58823 24.9345C2.07376 22.3482 2.33781 19.6672 3.34698 17.2309C4.35615 14.7945 6.06511 12.7122 8.25776 11.2471C10.0796 10.0297 12.1674 9.284 14.3342 9.0666C14.7521 9.02467 14.9611 9.0037 15.1575 9.08702C15.3195 9.15575 15.4783 9.29942 15.5629 9.45375C15.6654 9.64084 15.6654 9.87167 15.6654 10.3333V21C15.6654 21.4667 15.6654 21.7 15.7562 21.8784C15.836 22.0352 15.9635 22.1627 16.1204 22.2425C16.2987 22.3334 16.532 22.3334 16.9987 22.3334H27.6654ZM22.332 3.66667C22.332 3.20499 22.332 2.97415 22.4345 2.78707C22.519 2.63274 22.6779 2.48909 22.8399 2.42035C23.0362 2.33702 23.2452 2.35799 23.6632 2.3999C26.7105 2.70557 29.5754 4.05384 31.7602 6.23857C33.9449 8.42332 35.2932 11.2882 35.5989 14.3355C35.6407 14.7535 35.6617 14.9624 35.5784 15.1588C35.5097 15.3208 35.366 15.4796 35.2117 15.5642C35.0245 15.6667 34.7937 15.6667 34.332 15.6667H23.6654C23.1987 15.6667 22.9654 15.6667 22.787 15.5758C22.6302 15.4959 22.5027 15.3685 22.4229 15.2117C22.332 15.0334 22.332 14.8 22.332 14.3333V3.66667Z" stroke="white" stroke-width="3" stroke-linecap="round" stroke-linejoin="round"/>
</svg>

<svg width="38" height="38" fill="none" xmlns="http://www.w3.org/2000/svg"><path d="M27.665 22.333c.462 0 .693 0 .88.103a.884.884 0 0 1 .367.405c.083.197.062.405.02.823A13.333 13.333 0 1 1 14.334 9.068c.418-.042.627-.063.824.02.162.069.32.212.405.367.102.187.102.418.102.88V21c0 .467 0 .7.091.878.08.157.207.285.364.364.179.091.412.091.879.091h10.666ZM22.332 3.667c0-.462 0-.693.102-.88a.884.884 0 0 1 .406-.367c.196-.083.405-.062.823-.02A13.334 13.334 0 0 1 35.6 14.335c.042.418.063.627-.02.824a.885.885 0 0 1-.367.405c-.188.103-.418.103-.88.103H23.665c-.466 0-.7 0-.878-.091a.833.833 0 0 1-.364-.364c-.091-.179-.091-.412-.091-.879V3.667Z" stroke="#fff" stroke-width="3" stroke-linecap="round" stroke-linejoin="round"/></svg>
